Numix/16/actions/chronometer.svg

<?xml version="1.0" encoding="UTF-8" standalone="no"?>
<svg
   xmlns:dc="http://purl.org/dc/elements/1.1/"
   xmlns:cc="http://creativecommons.org/ns#"
   xmlns:rdf="http://www.w3.org/1999/02/22-rdf-syntax-ns#"
   xmlns:svg="http://www.w3.org/2000/svg"
   xmlns="http://www.w3.org/2000/svg"
   xmlns:sodipodi="http://sodipodi.sourceforge.net/DTD/sodipodi-0.dtd"
   xmlns:inkscape="http://www.inkscape.org/namespaces/inkscape"
   width="16"
   height="16"
   viewBox="0 0 16 16"
   id="svg2"
   version="1.1"
   inkscape:version="0.91 r13725"
   sodipodi:docname="chronometer.svg">
  <metadata
     id="metadata16">
    <rdf:RDF>
      <cc:Work
         rdf:about="">
        <dc:format>image/svg+xml</dc:format>
        <dc:type
           rdf:resource="http://purl.org/dc/dcmitype/StillImage" />
        <dc:title></dc:title>
      </cc:Work>
    </rdf:RDF>
  </metadata>
  <defs
     id="defs14" />
  <sodipodi:namedview
     pagecolor="#ffffff"
     bordercolor="#666666"
     borderopacity="1"
     objecttolerance="10"
     gridtolerance="10"
     guidetolerance="10"
     inkscape:pageopacity="0"
     inkscape:pageshadow="2"
     inkscape:window-width="1366"
     inkscape:window-height="704"
     id="namedview12"
     showgrid="true"
     inkscape:zoom="32"
     inkscape:cx="4.586774"
     inkscape:cy="8.4433757"
     inkscape:window-x="0"
     inkscape:window-y="27"
     inkscape:window-maximized="1"
     inkscape:current-layer="svg2"
     inkscape:object-nodes="true">
    <inkscape:grid
       type="xygrid"
       id="grid4144" />
  </sodipodi:namedview>
  <g
     transform="matrix(0.70000001,0,0,0.70000001,-0.39999386,-0.39999742)"
     id="g4">
    <path
       style="fill:#ffffff;fill-rule:evenodd"
       d="m 21.375,12.000374 a 9.375,9.3750406 0 0 1 -18.75,0 9.375,9.3750406 0 1 1 18.75,0 z"
       id="path6"
       inkscape:connector-curvature="0" />
    <path
       style="fill:#268bd2"
       d="M 11.984375,5.484375 C 11.433594,5.492188 10.992188,5.949219 11,6.5 l 0,5.5 c 0,0.234375 0.08203,0.460938 0.234375,0.640625 l 2.5,3 c 0.222656,0.300781 0.589844,0.449219 0.957031,0.394531 0.367188,-0.05859 0.671875,-0.3125 0.792969,-0.664062 0.121094,-0.351563 0.03516,-0.742188 -0.21875,-1.011719 L 13,11.640625 13,6.5 C 13.003906,6.230469 12.898438,5.96875 12.707031,5.777344 12.515625,5.585938 12.253906,5.480469 11.984375,5.484375 Z"
       id="path8"
       inkscape:connector-curvature="0" />
    <path
       style="fill:#aaaaaa"
       d="m 11.999991,1.9999963 c -5.5117189,10e-8 -9.9999998,4.4882811 -9.9999998,9.9999997 0,5.511719 4.4882808,10 9.9999998,10 5.511719,0 10,-4.488281 10,-10 0,-5.5117189 -4.488281,-9.9999997 -10,-9.9999997 z m 0,2.0000004 c 4.429688,-5e-7 8,3.5703114 8,8.0000003 0,4.429687 -3.570312,7.999999 -8,8 -4.4296879,-1e-6 -7.9999998,-3.570313 -7.9999998,-8.000001 0,-4.4296876 3.570312,-7.9999996 7.9999998,-7.9999993 z"
       id="path10"
       inkscape:connector-curvature="0" />
  </g>
  <rect
     style="opacity:1;fill:#aaaaaa;fill-opacity:1;stroke:none;stroke-width:3;stroke-linecap:round;stroke-linejoin:round;stroke-miterlimit:4;stroke-dasharray:none;stroke-opacity:1"
     id="rect4169"
     width="4"
     height="2"
     x="6"
     y="4.2632564e-14"
     ry="0.5"
     rx="0.5" />
  <path
     style="opacity:1;fill:#aaaaaa;fill-opacity:1;stroke:none;stroke-width:3;stroke-linecap:round;stroke-linejoin:round;stroke-miterlimit:4;stroke-dasharray:none;stroke-opacity:1"
     d="m 1.2938029,2.6966992 c -0.39173719,0.3917371 -0.39173719,1.0224764 0,1.4142135 L 2.3544631,5.1715729 5.1828902,2.3431458 4.12223,1.2824856 c -0.3917371,-0.3917372 -1.0224764,-0.3917372 -1.4142136,0 z"
     id="rect4171"
     inkscape:connector-curvature="0"
     sodipodi:nodetypes="sccccss" />
  <path
     sodipodi:nodetypes="sccccss"
     inkscape:connector-curvature="0"
     id="path4185"
     d="m 14.702066,2.6966992 c 0.391737,0.3917371 0.391737,1.0224764 0,1.4142135 l -1.06066,1.0606602 -2.828427,-2.8284271 1.06066,-1.0606602 c 0.391737,-0.3917372 1.022476,-0.3917372 1.414214,0 z"
     style="opacity:1;fill:#aaaaaa;fill-opacity:1;stroke:none;stroke-width:3;stroke-linecap:round;stroke-linejoin:round;stroke-miterlimit:4;stroke-dasharray:none;stroke-opacity:1" />
</svg>

<svg xmlns="http://www.w3.org/2000/svg" viewBox="0 0 16 16">
 <g transform="matrix(0.70000001,0,0,0.70000001,-0.39999386,-0.39999742)">
  <path d="m 21.375 12 a 9.375 9.375 0 0 1 -18.75 0 9.375 9.375 0 1 1 18.75 0 z" style="fill:#fff;fill-rule:evenodd"/>
  <path d="m 11.984 5.484 c -0.551 0.008 -0.992 0.465 -0.984 1.016 l 0 5.5 c 0 0.234 0.082 0.461 0.234 0.641 l 2.5 3 c 0.223 0.301 0.59 0.449 0.957 0.395 0.367 -0.059 0.672 -0.313 0.793 -0.664 0.121 -0.352 0.035 -0.742 -0.219 -1.012 l -2.266 -2.719 0 -5.141 c 0.004 -0.27 -0.102 -0.531 -0.293 -0.723 -0.191 -0.191 -0.453 -0.297 -0.723 -0.293" style="fill:#268bd2"/>
  <path d="m 12 2 c -5.512 0 -10 4.488 -10 10 0 5.512 4.488 10 10 10 5.512 0 10 -4.488 10 -10 0 -5.512 -4.488 -10 -10 -10 z m 0 2 c 4.43 0 8 3.57 8 8 0 4.43 -3.57 8 -8 8 -4.43 0 -8 -3.57 -8 -8 0 -4.43 3.57 -8 8 -8 z" style="fill:#aaa"/>
 </g>
 <rect width="4" height="2" x="6" rx="0.5" style="fill:#aaa;opacity:1;fill-opacity:1;stroke:none"/>
 <path d="m 1.294 2.697 c -0.392 0.392 -0.392 1.022 0 1.414 l 1.061 1.061 2.828 -2.828 -1.061 -1.061 c -0.392 -0.392 -1.022 -0.392 -1.414 0 z" style="fill:#aaa;opacity:1;fill-opacity:1;stroke:none"/>
 <path d="m 14.702 2.697 c 0.392 0.392 0.392 1.022 0 1.414 l -1.061 1.061 -2.828 -2.828 1.061 -1.061 c 0.392 -0.392 1.022 -0.392 1.414 0 z" style="fill:#aaa;opacity:1;fill-opacity:1;stroke:none"/>
</svg>
